app/img/solutions/ic_workflow.svg

<svg width="41" height="41" viewBox="0 0 41 41" fill="none" xmlns="http://www.w3.org/2000/svg">
    <path d="M25.733 9.75659L31.3255 15.4079C31.4909 15.5788 31.6885 15.7146 31.9067 15.8073C32.1248 15.9 32.3591 15.9478 32.5958 15.9478C32.8325 15.9478 33.0669 15.9 33.285 15.8073C33.5032 15.7146 33.7007 15.5788 33.8661 15.4079L39.4667 9.75659C39.6354 9.58977 39.7695 9.39065 39.861 9.17089C39.9525 8.95114 39.9996 8.71517 39.9996 8.47681C39.9996 8.23844 39.9525 8.00247 39.861 7.78272C39.7695 7.56296 39.6354 7.36385 39.4667 7.19702L33.8621 1.54161C33.697 1.37022 33.4995 1.23399 33.2813 1.14096C33.0631 1.04793 32.8287 1 32.5918 1C32.3549 1 32.1205 1.04793 31.9023 1.14096C31.6841 1.23399 31.4866 1.37022 31.3215 1.54161L25.733 7.19296C25.5632 7.35956 25.4282 7.55884 25.336 7.779C25.2438 7.99917 25.1963 8.23576 25.1963 8.47477C25.1963 8.71379 25.2438 8.95038 25.336 9.17054C25.4282 9.39071 25.5632 9.58999 25.733 9.75659V9.75659ZM26.8725 8.34273L32.465 2.69138C32.4804 2.67115 32.5002 2.65476 32.5229 2.64349C32.5456 2.63222 32.5705 2.62635 32.5958 2.62635C32.6211 2.62635 32.6461 2.63222 32.6688 2.64349C32.6915 2.65476 32.7113 2.67115 32.7267 2.69138L38.3273 8.34273C38.3473 8.35829 38.3635 8.37829 38.3747 8.40118C38.3859 8.42408 38.3917 8.44926 38.3917 8.47477C38.3917 8.50029 38.3859 8.52547 38.3747 8.54837C38.3635 8.57126 38.3473 8.59126 38.3273 8.60682L32.7267 14.2582C32.7113 14.2784 32.6915 14.2948 32.6688 14.3061C32.6461 14.3173 32.6211 14.3232 32.5958 14.3232C32.5705 14.3232 32.5456 14.3173 32.5229 14.3061C32.5002 14.2948 32.4804 14.2784 32.465 14.2582L26.8604 8.60682C26.8403 8.59126 26.8241 8.57126 26.8129 8.54837C26.8018 8.52547 26.7959 8.50029 26.7959 8.47477C26.7959 8.44926 26.8018 8.42408 26.8129 8.40118C26.8241 8.37829 26.8403 8.35829 26.8604 8.34273H26.8725Z"
          fill="#7CEA57" stroke="#7CEA57"/>
    <path d="M7.80443 1.60657C6.45864 1.60657 5.14308 2.00926 4.02409 2.76372C2.90511 3.51818 2.03297 4.59052 1.51796 5.84514C1.00295 7.09977 0.868198 8.48032 1.13075 9.81222C1.3933 11.1441 2.04136 12.3675 2.99297 13.3278C3.94459 14.288 5.15702 14.942 6.47695 15.2069C7.79688 15.4718 9.16503 15.3359 10.4084 14.8162C11.6517 14.2965 12.7144 13.4164 13.4621 12.2873C14.2098 11.1582 14.6089 9.83069 14.6089 8.4727C14.6067 6.65235 13.8891 4.90717 12.6135 3.61999C11.3379 2.3328 9.60842 1.60872 7.80443 1.60657V1.60657ZM7.80443 13.7178C6.77734 13.7178 5.77331 13.4105 4.91927 12.8348C4.06522 12.2591 3.3995 11.4408 3.00627 10.4833C2.61303 9.52591 2.50994 8.47233 2.71003 7.45578C2.91011 6.43924 3.40438 5.50537 4.13036 4.77224C4.85634 4.03911 5.78143 3.53963 6.78868 3.33695C7.79594 3.13427 8.84013 3.23748 9.78927 3.63353C10.7384 4.02959 11.5499 4.70071 12.1211 5.56206C12.6923 6.4234 12.9975 7.4363 12.9983 8.4727C12.9973 9.86275 12.4499 11.1956 11.4761 12.1789C10.5024 13.1622 9.18198 13.7156 7.80443 13.7178V13.7178Z"
          fill="#7CEA57" stroke="#7CEA57"/>
    <path d="M20.6487 11.7595L24.538 8.47268L20.6487 5.18994L19.6139 6.43722L21.0674 7.66012H15.9902V9.28524H21.0674L19.6139 10.5122L20.6487 11.7595Z"
          fill="#022AF0"/>
    <path d="M32.0888 16.8462C31.9231 16.8462 31.7888 16.9805 31.7888 17.1462V21.9653L30.7701 20.7324C30.6637 20.6037 30.4728 20.5866 30.3452 20.6944L29.5678 21.3511C29.4421 21.4573 29.4253 21.6449 29.5303 21.7716L32.363 25.1925C32.483 25.3374 32.7052 25.3374 32.8251 25.1925L35.6581 21.7712C35.763 21.6446 35.7464 21.4573 35.621 21.351L34.8466 20.6947C34.7192 20.5868 34.5283 20.6036 34.4217 20.7321L33.3993 21.9653V17.1462C33.3993 16.9805 33.265 16.8462 33.0993 16.8462H32.0888Z"
          fill="#022AF0"/>
    <path d="M13.6105 28.2794C13.6105 27.7271 13.1627 27.2794 12.6105 27.2794H2.97851C2.42623 27.2794 1.97852 27.7271 1.97852 28.2794V37.9965C1.97852 38.5488 2.42623 38.9965 2.97852 38.9965H12.6105C13.1627 38.9965 13.6105 38.5488 13.6105 37.9965V28.2794ZM11.9999 36.3714C11.9999 36.9237 11.5522 37.3714 10.9999 37.3714H4.58903C4.03675 37.3714 3.58903 36.9237 3.58903 36.3714V29.9045C3.58903 29.3523 4.03675 28.9045 4.58903 28.9045H10.9999C11.5522 28.9045 11.9999 29.3523 11.9999 29.9045V36.3714Z"
          fill="#7CEA57" stroke="#7CEA57"/>
    <path d="M25.79 33.1338C25.79 34.4925 26.1895 35.8207 26.9379 36.9502C27.6863 38.0796 28.75 38.9597 29.9943 39.4789C31.2385 39.9981 32.6075 40.1331 33.9279 39.8668C35.2482 39.6006 36.4607 38.945 37.4116 37.9832C38.3626 37.0213 39.0094 35.7963 39.2701 34.4634C39.5308 33.1304 39.3938 31.7494 38.8763 30.495C38.3588 29.2407 37.4842 28.1695 36.3631 27.417C35.242 26.6645 33.9248 26.2645 32.5784 26.2677C30.7772 26.2742 29.0518 27.0001 27.7797 28.2869C26.5075 29.5736 25.7922 31.3163 25.79 33.1338V33.1338ZM32.5784 27.8928C33.6056 27.8928 34.6098 28.2002 35.4639 28.7761C36.3181 29.352 36.9838 30.1705 37.3769 31.1282C37.77 32.0859 37.8729 33.1397 37.6725 34.1563C37.4721 35.173 36.9774 36.1068 36.251 36.8398C35.5246 37.5728 34.5992 38.0719 33.5916 38.2742C32.5841 38.4764 31.5398 38.3726 30.5907 37.9759C29.6417 37.5792 28.8305 36.9075 28.2598 36.0456C27.6891 35.1837 27.3844 34.1704 27.3844 33.1338C27.3866 31.7445 27.9345 30.4127 28.9081 29.4303C29.8816 28.4479 31.2015 27.895 32.5784 27.8928Z"
          fill="#7CEA57" stroke="#7CEA57"/>
    <path d="M20.2335 35.4021C20.3386 35.2755 20.322 35.0878 20.1965 34.9815L18.9737 33.9465H23.7468C23.9125 33.9465 24.0468 33.8122 24.0468 33.6465V32.6214C24.0468 32.4557 23.9125 32.3214 23.7468 32.3214H18.9737L20.1958 31.2903C20.3217 31.1841 20.3384 30.9963 20.2332 30.8695L19.5816 30.0841C19.4752 29.9558 19.2846 29.9388 19.1572 30.0463L15.7705 32.9048C15.6285 33.0246 15.6285 33.2433 15.7703 33.3632L19.1572 36.2253C19.2846 36.333 19.4752 36.3161 19.5817 36.1877L20.2335 35.4021Z"
          fill="#022AF0"/>
</svg>

<svg width="41" height="41" fill="none" xmlns="http://www.w3.org/2000/svg"><path d="m25.733 9.757 5.593 5.65a1.775 1.775 0 0 0 1.27.54 1.762 1.762 0 0 0 1.27-.54l5.6-5.65A1.793 1.793 0 0 0 40 8.477a1.806 1.806 0 0 0-.533-1.28l-5.605-5.655A1.771 1.771 0 0 0 32.592 1a1.758 1.758 0 0 0-1.27.542l-5.589 5.651a1.79 1.79 0 0 0-.537 1.282 1.801 1.801 0 0 0 .537 1.282Zm1.14-1.414 5.592-5.652a.165.165 0 0 1 .262 0l5.6 5.652a.167.167 0 0 1 0 .264l-5.6 5.651a.166.166 0 0 1-.131.065.165.165 0 0 1-.131-.065L26.86 8.607a.166.166 0 0 1-.047-.206.166.166 0 0 1 .047-.058h.012ZM7.804 1.607a6.761 6.761 0 0 0-3.78 1.157 6.853 6.853 0 0 0-2.506 3.081 6.924 6.924 0 0 0-.387 3.967 6.886 6.886 0 0 0 1.862 3.516 6.786 6.786 0 0 0 3.484 1.879 6.748 6.748 0 0 0 3.931-.39 6.819 6.819 0 0 0 3.054-2.53 6.91 6.91 0 0 0-.848-8.667 6.782 6.782 0 0 0-4.81-2.013Zm0 12.11a5.16 5.16 0 0 1-2.885-.882 5.23 5.23 0 0 1-1.913-2.352 5.285 5.285 0 0 1-.296-3.027c.2-1.017.694-1.95 1.42-2.684A5.18 5.18 0 0 1 6.79 3.337a5.15 5.15 0 0 1 3 .297 5.204 5.204 0 0 1 2.332 1.928 5.275 5.275 0 0 1-.645 6.617 5.179 5.179 0 0 1-3.672 1.539Z" fill="#7CEA57" stroke="#7CEA57"/><path d="m20.649 11.76 3.889-3.287-3.89-3.283-1.034 1.247 1.453 1.223H15.99v1.625h5.077l-1.453 1.227 1.035 1.247ZM32.089 16.846a.3.3 0 0 0-.3.3v4.82l-1.019-1.234a.3.3 0 0 0-.425-.038l-.777.657a.3.3 0 0 0-.038.42l2.833 3.421a.3.3 0 0 0 .462 0l2.833-3.42a.3.3 0 0 0-.037-.421l-.774-.656a.3.3 0 0 0-.425.037l-1.023 1.233v-4.819a.3.3 0 0 0-.3-.3h-1.01Z" fill="#022AF0"/><path d="M13.61 28.28a1 1 0 0 0-1-1H2.98a1 1 0 0 0-1 1v9.716a1 1 0 0 0 1 1h9.632a1 1 0 0 0 1-1V28.28ZM12 36.37a1 1 0 0 1-1 1H4.589a1 1 0 0 1-1-1v-6.467a1 1 0 0 1 1-1h6.41a1 1 0 0 1 1 1v6.467ZM25.79 33.134c0 1.358.4 2.687 1.148 3.816a6.819 6.819 0 0 0 3.056 2.529 6.747 6.747 0 0 0 3.934.388 6.786 6.786 0 0 0 3.484-1.884 6.886 6.886 0 0 0 1.858-3.52 6.924 6.924 0 0 0-.394-3.968 6.853 6.853 0 0 0-2.513-3.078 6.761 6.761 0 0 0-3.785-1.15 6.782 6.782 0 0 0-4.798 2.02 6.906 6.906 0 0 0-1.99 4.847Zm6.788-5.241a5.16 5.16 0 0 1 2.886.883 5.23 5.23 0 0 1 1.913 2.352c.393.958.496 2.012.295 3.028a5.256 5.256 0 0 1-1.421 2.684 5.18 5.18 0 0 1-2.66 1.434 5.15 5.15 0 0 1-3-.298 5.204 5.204 0 0 1-2.331-1.93 5.273 5.273 0 0 1 .648-6.615 5.179 5.179 0 0 1 3.67-1.538Z" fill="#7CEA57" stroke="#7CEA57"/><path d="M20.233 35.402a.3.3 0 0 0-.037-.42l-1.222-1.035h4.773a.3.3 0 0 0 .3-.3V32.62a.3.3 0 0 0-.3-.3h-4.773l1.222-1.03a.3.3 0 0 0 .037-.422l-.651-.785a.3.3 0 0 0-.425-.038l-3.386 2.859a.3.3 0 0 0 0 .458l3.386 2.862a.3.3 0 0 0 .425-.037l.651-.786Z" fill="#022AF0"/></svg>
